svg/24/play-pause.svg

<svg width="24" height="24" viewBox="0 0 24 24" fill="currentColor" xmlns="http://www.w3.org/2000/svg"><path fill-rule="evenodd" clip-rule="evenodd" d="M12.8564 13.7319C14.1897 12.9621 14.1897 11.0376 12.8564 10.2678L5 5.73187C3.66667 4.96207 2 5.92432 2 7.46392V16.5357C2 18.0753 3.66667 19.0376 5 18.2678L12.8564 13.7319ZM4.25 16.9687L12.1064 12.4328C12.4397 12.2404 12.4397 11.7593 12.1064 11.5668L4.25 7.03091C3.91667 6.83846 3.5 7.07902 3.5 7.46392L3.5 16.5357C3.5 16.9206 3.91667 17.1612 4.25 16.9687Z"/><path d="M17.25 5.49982C17.6642 5.49982 18 5.83561 18 6.24982L18 17.7498C18 18.164 17.6642 18.4998 17.25 18.4998C16.8357 18.4998 16.5 18.164 16.5 17.7498L16.5 6.24982C16.5 5.83561 16.8357 5.49982 17.25 5.49982Z"/><path d="M22 6.24982C22 5.83561 21.6642 5.49982 21.25 5.49982C20.8357 5.49982 20.5 5.83561 20.5 6.24982V17.7498C20.5 18.164 20.8357 18.4998 21.25 18.4998C21.6642 18.4998 22 18.164 22 17.7498V6.24982Z"/></svg>

<svg xmlns="http://www.w3.org/2000/svg" width="24" height="24" fill="currentColor" viewBox="0 0 24 24">
  <path fill-rule="evenodd" d="M12.856 13.732c1.334-.77 1.334-2.694 0-3.464L5 5.732c-1.333-.77-3 .192-3 1.732v9.072c0 1.54 1.667 2.502 3 1.732l7.856-4.536ZM4.25 16.969l7.856-4.536a.5.5 0 0 0 0-.866L4.25 7.03a.5.5 0 0 0-.75.433v9.072a.5.5 0 0 0 .75.433Z" clip-rule="evenodd"/>
  <path d="M17.25 5.5a.75.75 0 0 1 .75.75v11.5a.75.75 0 0 1-1.5 0V6.25a.75.75 0 0 1 .75-.75Zm4.75.75a.75.75 0 0 0-1.5 0v11.5a.75.75 0 1 0 1.5 0V6.25Z"/>
</svg>
